webpage/images/icons/icon-calendar.svg

<svg width="91" height="91" xmlns="http://www.w3.org/2000/svg">

 <g>
  <title>background</title>
  <rect fill="none" id="canvas_background" height="402" width="582" y="-1" x="-1"/>
 </g>
 <g>
  <title>Layer 1</title>
  <rect id="svg_5" y="10.638" x="5.767" width="78.765" height="17.589" fill="#989690"/>
  <path id="svg_6" fill="#3c393d" d="m84.531,30.739l-78.764,0c-1.388,0 -2.513,-1.125 -2.513,-2.513l0,-17.588c0,-1.388 1.125,-2.513 2.513,-2.513l78.765,0c1.387,0 2.512,1.125 2.512,2.513l0,17.589c-0.001,1.387 -1.126,2.512 -2.513,2.512zm-76.252,-5.025l73.738,0l0,-12.564l-73.738,0l0,12.564z"/>
  <path id="svg_8" fill="#f5f9f8" d="m5.769,28.229l0,60.224l70.84,0c4.354,0 7.923,-3.566 7.923,-7.926l0,-52.298l-78.763,0z"/>
  <path id="svg_9" fill="#3c393d" d="m76.609,90.966l-70.84,0c-1.388,0 -2.513,-1.125 -2.513,-2.513l0,-60.224c0,-1.388 1.125,-2.513 2.513,-2.513l78.763,0c1.388,0 2.513,1.125 2.513,2.513l0,52.298c0,5.756 -4.682,10.439 -10.436,10.439zm-68.327,-5.026l68.328,0c2.982,0 5.41,-2.428 5.41,-5.413l0,-49.785l-73.738,0l0,55.198z"/>
  <path id="svg_10" fill="#3c393d" d="m21.619,20.727c-1.388,0 -2.513,-1.125 -2.513,-2.513l0,-14.911c0,-1.388 1.125,-2.513 2.513,-2.513s2.513,1.125 2.513,2.513l0,14.911c-0.001,1.388 -1.126,2.513 -2.513,2.513z"/>
  <path id="svg_11" fill="#3c393d" d="m45.15,20.727c-1.388,0 -2.513,-1.125 -2.513,-2.513l0,-14.911c0,-1.388 1.125,-2.513 2.513,-2.513s2.513,1.125 2.513,2.513l0,14.911c0,1.388 -1.125,2.513 -2.513,2.513z"/>
  <path id="svg_12" fill="#3c393d" d="m68.684,20.727c-1.388,0 -2.513,-1.125 -2.513,-2.513l0,-14.911c0,-1.388 1.125,-2.513 2.513,-2.513s2.513,1.125 2.513,2.513l0,14.911c-0.001,1.388 -1.126,2.513 -2.513,2.513z"/>
  <path id="svg_13" fill="#3c393d" d="m28.728,54.737l-11.877,0c-1.388,0 -2.513,-1.125 -2.513,-2.513l0,-11.881c0,-1.388 1.125,-2.513 2.513,-2.513l11.876,0c1.388,0 2.513,1.125 2.513,2.513l0,11.882c0,1.387 -1.125,2.512 -2.512,2.512zm-9.364,-5.025l6.851,0l0,-6.856l-6.851,0l0,6.856z"/>
  <path id="svg_14" fill="#3c393d" d="m51.092,54.737l-11.88,0c-1.388,0 -2.513,-1.125 -2.513,-2.513l0,-11.881c0,-1.388 1.125,-2.513 2.513,-2.513l11.88,0c1.389,0 2.514,1.125 2.514,2.513l0,11.882c-0.001,1.387 -1.126,2.512 -2.514,2.512zm-9.367,-5.025l6.855,0l0,-6.856l-6.855,0l0,6.856z"/>
  <path id="svg_15" fill="#3c393d" d="m73.454,54.737l-11.878,0c-1.388,0 -2.513,-1.125 -2.513,-2.513l0,-11.881c0,-1.388 1.125,-2.513 2.513,-2.513l11.878,0c1.388,0 2.513,1.125 2.513,2.513l0,11.882c0,1.387 -1.125,2.512 -2.513,2.512zm-9.365,-5.025l6.853,0l0,-6.856l-6.853,0l0,6.856z"/>
  <path id="svg_16" fill="#3c393d" d="m28.728,78.278l-11.877,0c-1.388,0 -2.513,-1.125 -2.513,-2.513l0,-11.88c0,-1.388 1.125,-2.513 2.513,-2.513l11.876,0c1.388,0 2.513,1.125 2.513,2.513l0,11.88c0,1.388 -1.125,2.513 -2.512,2.513zm-9.364,-5.025l6.851,0l0,-6.854l-6.851,0l0,6.854z"/>
  <path id="svg_17" fill="#3c393d" d="m51.092,78.278l-11.88,0c-1.388,0 -2.513,-1.125 -2.513,-2.513l0,-11.88c0,-1.388 1.125,-2.513 2.513,-2.513l11.88,0c1.389,0 2.514,1.125 2.514,2.513l0,11.88c-0.001,1.388 -1.126,2.513 -2.514,2.513zm-9.367,-5.025l6.855,0l0,-6.854l-6.855,0l0,6.854z"/>
  <path id="svg_18" fill="#3c393d" d="m73.454,78.278l-11.878,0c-1.388,0 -2.513,-1.125 -2.513,-2.513l0,-11.88c0,-1.388 1.125,-2.513 2.513,-2.513l11.878,0c1.388,0 2.513,1.125 2.513,2.513l0,11.88c0,1.388 -1.125,2.513 -2.513,2.513zm-9.365,-5.025l6.853,0l0,-6.854l-6.853,0l0,6.854z"/>
 </g>
</svg>

<?xml version="1.0" ?><!DOCTYPE svg  PUBLIC '-//W3C//DTD SVG 1.1//EN'  'http://www.w3.org/Graphics/SVG/1.1/DTD/svg11.dtd'><svg enable-background="new 0 0 91 91" height="91px" id="Layer_1" version="1.1" viewBox="0 0 91 91" width="91px" xml:space="preserve" xmlns="http://www.w3.org/2000/svg" xmlns:xlink="http://www.w3.org/1999/xlink"><g><g><g><g><rect fill="#B0E0D4" height="17.589" width="78.765" x="5.767" y="10.638"/><path d="M84.531,30.739H5.767c-1.388,0-2.513-1.125-2.513-2.513V10.638c0-1.388,1.125-2.513,2.513-2.513h78.765      c1.387,0,2.512,1.125,2.512,2.513v17.589C87.043,29.614,85.918,30.739,84.531,30.739z M8.279,25.714h73.738V13.15H8.279V25.714z      " fill="#454B53"/></g><g><path d="M5.769,28.229v60.224h70.84c4.354,0,7.923-3.566,7.923-7.926V28.229H5.769z" fill="#E0F1F8"/><path d="M76.609,90.966H5.769c-1.388,0-2.513-1.125-2.513-2.513V28.229c0-1.388,1.125-2.513,2.513-2.513h78.763      c1.388,0,2.513,1.125,2.513,2.513v52.298C87.045,86.283,82.363,90.966,76.609,90.966z M8.282,85.94h68.328      c2.982,0,5.41-2.428,5.41-5.413V30.742H8.282V85.94z" fill="#454B53"/></g><path d="M21.619,20.727c-1.388,0-2.513-1.125-2.513-2.513V3.303c0-1.388,1.125-2.513,2.513-2.513     s2.513,1.125,2.513,2.513v14.911C24.131,19.602,23.006,20.727,21.619,20.727z" fill="#454B53"/><path d="M45.15,20.727c-1.388,0-2.513-1.125-2.513-2.513V3.303c0-1.388,1.125-2.513,2.513-2.513     s2.513,1.125,2.513,2.513v14.911C47.663,19.602,46.538,20.727,45.15,20.727z" fill="#454B53"/><path d="M68.684,20.727c-1.388,0-2.513-1.125-2.513-2.513V3.303c0-1.388,1.125-2.513,2.513-2.513     s2.513,1.125,2.513,2.513v14.911C71.196,19.602,70.071,20.727,68.684,20.727z" fill="#454B53"/><path d="M28.728,54.737H16.851c-1.388,0-2.513-1.125-2.513-2.513V40.343c0-1.388,1.125-2.513,2.513-2.513h11.876     c1.388,0,2.513,1.125,2.513,2.513v11.882C31.24,53.612,30.115,54.737,28.728,54.737z M19.364,49.712h6.851v-6.856h-6.851V49.712z     " fill="#454B53"/><path d="M51.092,54.737h-11.88c-1.388,0-2.513-1.125-2.513-2.513V40.343c0-1.388,1.125-2.513,2.513-2.513h11.88     c1.389,0,2.514,1.125,2.514,2.513v11.882C53.605,53.612,52.48,54.737,51.092,54.737z M41.725,49.712h6.855v-6.856h-6.855V49.712z     " fill="#454B53"/><path d="M73.454,54.737H61.576c-1.388,0-2.513-1.125-2.513-2.513V40.343c0-1.388,1.125-2.513,2.513-2.513h11.878     c1.388,0,2.513,1.125,2.513,2.513v11.882C75.967,53.612,74.842,54.737,73.454,54.737z M64.089,49.712h6.853v-6.856h-6.853V49.712     z" fill="#454B53"/><path d="M28.728,78.278H16.851c-1.388,0-2.513-1.125-2.513-2.513v-11.88c0-1.388,1.125-2.513,2.513-2.513h11.876     c1.388,0,2.513,1.125,2.513,2.513v11.88C31.24,77.153,30.115,78.278,28.728,78.278z M19.364,73.253h6.851v-6.854h-6.851V73.253z" fill="#454B53"/><path d="M51.092,78.278h-11.88c-1.388,0-2.513-1.125-2.513-2.513v-11.88c0-1.388,1.125-2.513,2.513-2.513h11.88     c1.389,0,2.514,1.125,2.514,2.513v11.88C53.605,77.153,52.48,78.278,51.092,78.278z M41.725,73.253h6.855v-6.854h-6.855V73.253z" fill="#454B53"/><path d="M73.454,78.278H61.576c-1.388,0-2.513-1.125-2.513-2.513v-11.88c0-1.388,1.125-2.513,2.513-2.513h11.878     c1.388,0,2.513,1.125,2.513,2.513v11.88C75.967,77.153,74.842,78.278,73.454,78.278z M64.089,73.253h6.853v-6.854h-6.853V73.253z     " fill="#454B53"/></g></g></g></svg>
